X: 18588
T: I Rowed Up In A Dory
R: reel
M: 4/4
K: Gmajor
GA|BGGF EDB,C|DEDB, D2GA|BGGF EDEG|ABAG A2GA|
BGGF EDB,C|DEDB, D2GA|BGBd cAFA|G2G2 G2:|
|:Bc|dBdB dBGA|BGBG B2GA|B2AA BddB|AAAB A2GA|
BGGF EDB,C|DEDB, D2GA|BGBd cAFA|G2G2 G2:|

